Yaru++/mimetypes/48/text.svg

<svg height="48" viewBox="0 0 12.7 12.7" width="48" xmlns="http://www.w3.org/2000/svg" xmlns:xlink="http://www.w3.org/1999/xlink"><linearGradient id="a" gradientUnits="userSpaceOnUse" x1="6.350384" x2="6.350384" y1=".396869" y2="12.038536"><stop offset="0" stop-color="#fff"/><stop offset=".125" stop-color="#fff" stop-opacity=".098039"/><stop offset=".92500001" stop-color="#fff" stop-opacity=".098039"/><stop offset="1" stop-color="#fff" stop-opacity=".498039"/></linearGradient><linearGradient id="b" gradientTransform="matrix(0 -.02997233 .02997147 0 -3.039659 13.626036)" gradientUnits="userSpaceOnUse" x1="459.03448" x2="35.310345" y1="419.23337" y2="207.36522"><stop offset="0" stop-color="#f2f2f2"/><stop offset="1" stop-color="#f9f9f9"/></linearGradient><path d="m4.162403.39686923c-.5881423-.0089588-1.0513696.0135414-1.4324701.0775148-.3811032.063972-.6929569.1839645-.9213929.411861-.2284333.22789667-.3490013.53960997-.4123769.92087397-.0633757.3812644-.0757476.845434-.0728636 1.4350545v3.2401124 3.2416624c-.00286.5887147.00955 1.0526497.072864 1.4335037.063376.381265.1839436.692978.4123769.920875.228436.227896.5402897.34789.9213929.411861.3811032.06397.844259.07752 1.4324701.07752h4.3759596c.5882111 0 1.0511261-.01352 1.4314381-.07752.3803119-.064.6912129-.184399.9188049-.412377.227595-.227978.347451-.53947.411345-.920359.06389-.380886.07752-.844114.07752-1.4335037v-3.2416624-3.175l-2.8391084-2.84375407z" opacity=".1"/><path d="m4.1625644.39686923c-2.334731 0-2.5859449.2398051-2.5745017 2.57925887v3.2415745 3.2415747c-.011456 2.3394537.2397707 2.5792587 2.5745017 2.5792587h4.375994c2.3347316 0 2.5745016-.239779 2.5745016-2.5792587v-3.2415747l-.000177-3.175-2.6458335-2.64583337z" fill="none" opacity=".2" stroke="#000" stroke-width=".529167"/><path d="m4.1625644.39686923c-2.334731 0-2.5859449.2398051-2.5745017 2.57925887v3.2415745 3.2415747c-.011456 2.3394537.2397707 2.5792587 2.5745017 2.5792587h4.375994c2.3347316 0 2.5745016-.239779 2.5745016-2.5792587v-3.2415747l-.000177-3.175-2.6458335-2.64583337z" fill="url(#b)"/><g enable-background="new" fill="#999" transform="matrix(.26458333 0 0 .26458333 -84.666283 -14.948964)"><path d="m332 84h24v1h-24z"/><path d="m332 87h24v1h-24z"/><path d="m332 90h24v1h-24z"/><path d="m332 93h12v1h-12z"/><path d="m332 75h24v1h-24z"/><path d="m332 78h24v1h-24z"/><path d="m332 81h24v1h-24z"/></g><path d="m1.5878828 6.2177026v3.2416627c-.011456 2.3394527.2397892 2.5791707 2.5745202 2.5791707h4.3759596c2.3347314 0 2.5745204-.239691 2.5745204-2.5791707v-3.2416627z" fill="#fff" opacity=".2"/><path d="m6.3503828.39686923v11.64166677h2.1879798c2.3347314 0 2.5745204-.239691 2.5745204-2.5791707v-3.2416627-3.175l-2.6458335-2.64583337z" fill="#fff" opacity=".1"/><path d="m4.162403.39686923c-2.334731 0-2.5859634.239717-2.5745202 2.57917077v3.2416626 3.2416627c-.011456 2.3394527.2397892 2.5791707 2.5745202 2.5791707h4.3759596c2.3347314 0 2.5745204-.239691 2.5745204-2.5791707v-3.2416627-3.175h-.264583v3.175 3.2416627c0 .5803497-.01625 1.0241217-.07028 1.3461697-.05402.322051-.139877.509149-.264068.633556-.12419.124394-.310716.21051-.6320023.264583-.3212887.05406-.764434.07028-1.3435884.07028h-4.3759583c-.5791544 0-1.0228501-.01619-1.3451391-.07028-.3222863-.0541-.5103203-.140097-.6351031-.264583-.1247802-.124495-.2105978-.311367-.2640648-.633037-.05347-.32167-.068471-.76555-.06563-1.3456557v-.000529-3.2421667-3.2421793-.0005292c-.0028309-.5801064.012171-1.0239838.06563-1.3456544.0534697-.3216707.1392846-.5085498.2640648-.63303627.1247801-.1244864.3133354-.210484.6356217-.2645833.3222863-.0540745.7654661-.0702675 1.3446205-.0702675h4.3046465v-.2645834z" fill="url(#a)" opacity=".4"/><path d="m11.112883 3.3072859v-.2645833l-2.6458335-2.64583337h-.2645834v1.11364557.04267.022918c0 1.506003.2016019 1.7382252 1.7110606 1.7308441z" opacity=".2"/><path d="m11.112883 3.0423639-2.6458335-2.64549517v.98132417.04267.022918c0 1.5060031.069406 1.6059637 1.5788645 1.5985826z" fill="#faf8f6"/></svg>

<?xml version="1.0" encoding="UTF-8" standalone="no"?>
<svg
   xmlns:dc="http://purl.org/dc/elements/1.1/"
   xmlns:cc="http://creativecommons.org/ns#"
   xmlns:rdf="http://www.w3.org/1999/02/22-rdf-syntax-ns#"
   xmlns:svg="http://www.w3.org/2000/svg"
   xmlns="http://www.w3.org/2000/svg"
   xmlns:xlink="http://www.w3.org/1999/xlink"
   xmlns:sodipodi="http://sodipodi.sourceforge.net/DTD/sodipodi-0.dtd"
   xmlns:inkscape="http://www.inkscape.org/namespaces/inkscape"
   height="48"
   viewBox="0 0 12.7 12.7"
   width="48"
   version="1.1"
   id="svg49"
   sodipodi:docname="text.svg"
   inkscape:version="0.92.5 (2060ec1f9f, 2020-04-08)">
  <metadata
     id="metadata55">
    <rdf:RDF>
      <cc:Work
         rdf:about="">
        <dc:format>image/svg+xml</dc:format>
        <dc:type
           rdf:resource="http://purl.org/dc/dcmitype/StillImage" />
      </cc:Work>
    </rdf:RDF>
  </metadata>
  <defs
     id="defs53">
    <linearGradient
       gradientTransform="matrix(0.26458333,0,0,0.26458333,-84.666282,-16.007297)"
       inkscape:collect="always"
       xlink:href="#linearGradient927"
       id="linearGradient1004"
       x1="344"
       y1="62"
       x2="344"
       y2="106"
       gradientUnits="userSpaceOnUse" />
    <linearGradient
       inkscape:collect="always"
       id="linearGradient927">
      <stop
         style="stop-color:#ffffff;stop-opacity:1;"
         offset="0"
         id="stop923" />
      <stop
         id="stop933"
         offset="0.125"
         style="stop-color:#ffffff;stop-opacity:0.09803922" />
      <stop
         id="stop931"
         offset="0.92500001"
         style="stop-color:#ffffff;stop-opacity:0.09803922" />
      <stop
         style="stop-color:#ffffff;stop-opacity:0.49803922"
         offset="1"
         id="stop925" />
    </linearGradient>
    <linearGradient
       inkscape:collect="always"
       xlink:href="#linearGradient4338"
       id="linearGradient1024"
       gradientUnits="userSpaceOnUse"
       gradientTransform="matrix(0,-0.02997233,0.02997147,0,-3.0396585,13.626036)"
       x1="459.03448"
       y1="419.23337"
       x2="35.310345"
       y2="207.36522" />
    <linearGradient
       inkscape:collect="always"
       id="linearGradient4338">
      <stop
         style="stop-color:#f2f2f2;stop-opacity:1"
         offset="0"
         id="stop4340" />
      <stop
         style="stop-color:#f9f9f9;stop-opacity:1"
         offset="1"
         id="stop4342" />
    </linearGradient>
  </defs>
  <sodipodi:namedview
     pagecolor="#ffffff"
     bordercolor="#666666"
     borderopacity="1"
     objecttolerance="10"
     gridtolerance="10"
     guidetolerance="10"
     inkscape:pageopacity="0"
     inkscape:pageshadow="2"
     inkscape:window-width="834"
     inkscape:window-height="480"
     id="namedview51"
     showgrid="false"
     inkscape:zoom="4.9166667"
     inkscape:cx="24"
     inkscape:cy="24"
     inkscape:window-x="0"
     inkscape:window-y="28"
     inkscape:window-maximized="0"
     inkscape:current-layer="svg49" />
  <linearGradient
     id="a"
     gradientUnits="userSpaceOnUse"
     x1="344"
     x2="344"
     y1="62"
     y2="106">
    <stop
       offset="0"
       stop-color="#fff"
       id="stop2" />
    <stop
       offset=".125"
       stop-color="#fff"
       stop-opacity=".098039"
       id="stop4" />
    <stop
       offset=".92500001"
       stop-color="#fff"
       stop-opacity=".098039"
       id="stop6" />
    <stop
       offset="1"
       stop-color="#fff"
       stop-opacity=".498039"
       id="stop8" />
  </linearGradient>
  <clipPath
     id="b">
    <path
       d="m335.73108 62c-8.82418 0-9.77365.90635-9.7304 9.74838v12.25162 12.25162c-.0433 8.84203.90622 9.74838 9.7304 9.74838h16.53919c8.82418 0 9.7304-.90625 9.7304-9.74838v-12.25162-12.25162c0-8.84213-.90622-9.74838-9.7304-9.74838z"
       id="path11" />
  </clipPath>
  <linearGradient
     id="c"
     gradientTransform="matrix(0 -.02997233 .02997147 0 -3.039659 297.92607)"
     gradientUnits="userSpaceOnUse"
     x1="459.03448"
     x2="35.310345"
     y1="419.23337"
     y2="207.36522">
    <stop
       offset="0"
       stop-color="#f2f2f2"
       id="stop14" />
    <stop
       offset="1"
       stop-color="#f9f9f9"
       id="stop16" />
  </linearGradient>
  <path
     style="color:#000000;font-style:normal;font-variant:normal;font-weight:normal;font-stretch:normal;font-size:medium;line-height:normal;font-family:sans-serif;font-variant-ligatures:normal;font-variant-position:normal;font-variant-caps:normal;font-variant-numeric:normal;font-variant-alternates:normal;font-feature-settings:normal;text-indent:0;text-align:start;text-decoration:none;text-decoration-line:none;text-decoration-style:solid;text-decoration-color:#000000;letter-spacing:normal;word-spacing:normal;text-transform:none;writing-mode:lr-tb;direction:ltr;text-orientation:mixed;dominant-baseline:auto;baseline-shift:baseline;text-anchor:start;white-space:normal;shape-padding:0;clip-rule:nonzero;display:inline;overflow:visible;visibility:visible;opacity:0.1;isolation:auto;mix-blend-mode:normal;color-interpolation:sRGB;color-interpolation-filters:linearRGB;solid-color:#000000;solid-opacity:1;vector-effect:none;fill:#000000;fill-opacity:1;fill-rule:nonzero;stroke:none;stroke-width:0.52916664;stroke-linecap:butt;stroke-linejoin:miter;stroke-miterlimit:4;stroke-dasharray:none;stroke-dashoffset:0;stroke-opacity:1;marker:none;color-rendering:auto;image-rendering:auto;shape-rendering:auto;text-rendering:auto;enable-background:accumulate"
     d="M 4.162403,0.39686923 C 3.5742607,0.38791043 3.1110334,0.41041063 2.7299329,0.47438403 2.3488297,0.53835603 2.036976,0.65834853 1.80854,0.88624503 1.5801067,1.1141417 1.4595387,1.425855 1.3961631,1.807119 1.3327874,2.1883834 1.3204155,2.652553 1.3232995,3.2421735 v 3.2401124 3.2416624 c -0.00286,0.5887147 0.00955,1.0526497 0.072864,1.4335037 0.063376,0.381265 0.1839436,0.692978 0.4123769,0.920875 0.228436,0.227896 0.5402897,0.34789 0.9213929,0.411861 0.3811032,0.06397 0.844259,0.07752 1.4324701,0.07752 H 8.538363 c 0.5882111,0 1.0511261,-0.01352 1.4314381,-0.07752 0.3803119,-0.064 0.6912129,-0.184399 0.9188049,-0.412377 0.227595,-0.227978 0.347451,-0.53947 0.411345,-0.920359 0.06389,-0.380886 0.07752,-0.844114 0.07752,-1.4335037 v -3.2416624 -3.175 L 8.5383626,0.46353183 Z"
     id="path1020"
     inkscape:connector-curvature="0"
     sodipodi:nodetypes="sccsccccccsscccscccs" />
  <path
     style="color:#000000;display:inline;overflow:visible;visibility:visible;opacity:0.2;fill:none;fill-opacity:1;fill-rule:nonzero;stroke:#000000;stroke-width:0.52916664;stroke-miterlimit:4;stroke-dasharray:none;stroke-opacity:1;marker:none;enable-background:accumulate"
     d="m 4.1625644,0.39686923 c -2.334731,0 -2.5859449,0.2398051 -2.5745017,2.57925887 v 3.2415745 3.2415747 c -0.011456,2.3394537 0.2397707,2.5792587 2.5745017,2.5792587 h 4.375994 c 2.3347316,0 2.5745016,-0.239779 2.5745016,-2.5792587 V 6.2177026 l -1.77e-4,-3.175 -2.6458335,-2.64583337 z"
     id="path958"
     inkscape:connector-curvature="0"
     sodipodi:nodetypes="scccssscccs" />
  <path
     style="color:#000000;display:inline;overflow:visible;visibility:visible;fill:url(#linearGradient1024);fill-opacity:1;fill-rule:nonzero;stroke:none;stroke-width:0.26458332;marker:none;enable-background:accumulate"
     d="m 4.1625644,0.39686923 c -2.334731,0 -2.5859449,0.2398051 -2.5745017,2.57925887 v 3.2415745 3.2415747 c -0.011456,2.3394537 0.2397707,2.5792587 2.5745017,2.5792587 h 4.375994 c 2.3347316,0 2.5745016,-0.239779 2.5745016,-2.5792587 V 6.2177026 l -1.77e-4,-3.175 -2.6458335,-2.64583337 z"
     id="path964"
     inkscape:connector-curvature="0"
     sodipodi:nodetypes="scccssscccs" />
  <g
     id="g1000"
     style="display:inline;fill:#999999;fill-opacity:1;enable-background:new"
     transform="matrix(0.26458333,0,0,0.26458333,-84.666283,-14.948964)">
    <path
       sodipodi:nodetypes="ccccc"
       inkscape:connector-curvature="0"
       id="rect1105"
       d="m 332,84 h 24 v 1 h -24 z"
       style="opacity:1;fill:#999999;fill-opacity:1;stroke:none;stroke-width:2;stroke-linecap:square;stroke-linejoin:round;stroke-miterlimit:4;stroke-dasharray:none;stroke-dashoffset:0;stroke-opacity:1" />
    <path
       sodipodi:nodetypes="ccccc"
       inkscape:connector-curvature="0"
       id="rect1107"
       d="m 332,87 h 24 v 1 h -24 z"
       style="opacity:1;fill:#999999;fill-opacity:1;stroke:none;stroke-width:2;stroke-linecap:square;stroke-linejoin:round;stroke-miterlimit:4;stroke-dasharray:none;stroke-dashoffset:0;stroke-opacity:1" />
    <path
       sodipodi:nodetypes="ccccc"
       inkscape:connector-curvature="0"
       id="rect1109"
       d="m 332,90 h 24 v 1 h -24 z"
       style="opacity:1;fill:#999999;fill-opacity:1;stroke:none;stroke-width:2;stroke-linecap:square;stroke-linejoin:round;stroke-miterlimit:4;stroke-dasharray:none;stroke-dashoffset:0;stroke-opacity:1" />
    <path
       sodipodi:nodetypes="ccccc"
       inkscape:connector-curvature="0"
       id="rect1134"
       d="m 332,93 h 12 v 1 h -12 z"
       style="opacity:1;fill:#999999;fill-opacity:1;stroke:none;stroke-width:2;stroke-linecap:square;stroke-linejoin:round;stroke-miterlimit:4;stroke-dasharray:none;stroke-dashoffset:0;stroke-opacity:1" />
    <path
       style="opacity:1;fill:#999999;fill-opacity:1;stroke:none;stroke-width:2;stroke-linecap:square;stroke-linejoin:round;stroke-miterlimit:4;stroke-dasharray:none;stroke-dashoffset:0;stroke-opacity:1"
       d="m 332,75 h 24 v 1 h -24 z"
       id="path967"
       inkscape:connector-curvature="0"
       sodipodi:nodetypes="ccccc" />
    <path
       style="opacity:1;fill:#999999;fill-opacity:1;stroke:none;stroke-width:2;stroke-linecap:square;stroke-linejoin:round;stroke-miterlimit:4;stroke-dasharray:none;stroke-dashoffset:0;stroke-opacity:1"
       d="m 332,78 h 24 v 1 h -24 z"
       id="path969"
       inkscape:connector-curvature="0"
       sodipodi:nodetypes="ccccc" />
    <path
       style="opacity:1;fill:#999999;fill-opacity:1;stroke:none;stroke-width:2;stroke-linecap:square;stroke-linejoin:round;stroke-miterlimit:4;stroke-dasharray:none;stroke-dashoffset:0;stroke-opacity:1"
       d="m 332,81 h 24 v 1 h -24 z"
       id="path971"
       inkscape:connector-curvature="0"
       sodipodi:nodetypes="ccccc" />
  </g>
  <path
     style="color:#000000;display:inline;overflow:visible;visibility:visible;opacity:0.2;fill:#ffffff;fill-opacity:1;fill-rule:nonzero;stroke:none;stroke-width:0.26458332;marker:none;enable-background:accumulate"
     d="M 1.5878828,6.2177026 V 9.4593653 C 1.5764268,11.798818 1.827672,12.038536 4.162403,12.038536 h 4.3759596 c 2.3347314,0 2.5745204,-0.239691 2.5745204,-2.5791707 V 6.2177026 Z"
     id="path1006"
     inkscape:connector-curvature="0" />
  <path
     style="color:#000000;display:inline;overflow:visible;visibility:visible;opacity:0.1;fill:#ffffff;fill-opacity:1;fill-rule:nonzero;stroke:none;stroke-width:0.26458332;marker:none;enable-background:accumulate"
     d="M 6.3503828,0.39686923 V 12.038536 h 2.1879798 c 2.3347314,0 2.5745204,-0.239691 2.5745204,-2.5791707 v -3.2416627 -3.175 L 8.4670495,0.39686923 Z"
     id="path1013"
     inkscape:connector-curvature="0"
     sodipodi:nodetypes="ccsscccc" />
  <path
     inkscape:connector-curvature="0"
     style="color:#000000;font-style:normal;font-variant:normal;font-weight:normal;font-stretch:normal;font-size:medium;line-height:normal;font-family:sans-serif;font-variant-ligatures:normal;font-variant-position:normal;font-variant-caps:normal;font-variant-numeric:normal;font-variant-alternates:normal;font-feature-settings:normal;text-indent:0;text-align:start;text-decoration:none;text-decoration-line:none;text-decoration-style:solid;text-decoration-color:#000000;letter-spacing:normal;word-spacing:normal;text-transform:none;writing-mode:lr-tb;direction:ltr;text-orientation:mixed;dominant-baseline:auto;baseline-shift:baseline;text-anchor:start;white-space:normal;shape-padding:0;clip-rule:nonzero;display:inline;overflow:visible;visibility:visible;opacity:0.4;isolation:auto;mix-blend-mode:normal;color-interpolation:sRGB;color-interpolation-filters:linearRGB;solid-color:#000000;solid-opacity:1;vector-effect:none;fill:url(#linearGradient1004);fill-opacity:1;fill-rule:nonzero;stroke:none;stroke-width:0.52916664;stroke-linecap:butt;stroke-linejoin:miter;stroke-miterlimit:4;stroke-dasharray:none;stroke-dashoffset:0;stroke-opacity:1;marker:none;color-rendering:auto;image-rendering:auto;shape-rendering:auto;text-rendering:auto;enable-background:accumulate"
     clip-path="none"
     d="m 4.162403,0.39686923 c -2.334731,0 -2.5859634,0.239717 -2.5745202,2.57917077 V 6.2177026 9.4593653 C 1.5764268,11.798818 1.827672,12.038536 4.162403,12.038536 h 4.3759596 c 2.3347314,0 2.5745204,-0.239691 2.5745204,-2.5791707 v -3.2416627 -3.175 H 10.8483 v 3.175 3.2416627 c 0,0.5803497 -0.01625,1.0241217 -0.07028,1.3461697 -0.05402,0.322051 -0.139877,0.509149 -0.264068,0.633556 -0.12419,0.124394 -0.310716,0.21051 -0.6320023,0.264583 -0.3212887,0.05406 -0.764434,0.07028 -1.3435884,0.07028 H 4.162403 c -0.5791544,0 -1.0228501,-0.01619 -1.3451391,-0.07028 C 2.4949776,11.649574 2.3069436,11.563577 2.1821608,11.439091 2.0573806,11.314596 1.971563,11.127724 1.918096,10.806054 1.864626,10.484384 1.849625,10.040504 1.852466,9.4603983 V 9.4598693 6.2177026 2.9755233 2.9749941 C 1.8496351,2.3948877 1.864637,1.9510103 1.918096,1.6293397 1.9715657,1.307669 2.0573806,1.1207899 2.1821608,0.99630343 2.3069409,0.87181703 2.4954962,0.78581943 2.8177825,0.73172013 3.1400688,0.67764563 3.5832486,0.66145263 4.162403,0.66145263 h 4.3046465 v -0.2645834 z"
     id="path990" />
  <path
     inkscape:connector-curvature="0"
     style="color:#000000;display:inline;overflow:visible;visibility:visible;opacity:0.2;fill:#000000;fill-opacity:1;fill-rule:nonzero;stroke:none;stroke-width:0.06615189;marker:none;enable-background:accumulate"
     d="M 11.112883,3.3072859 V 3.0427026 L 8.4670495,0.39686923 H 8.2024661 v 1.11364557 0.04267 0.022918 c 0,1.506003 0.2016019,1.7382252 1.7110606,1.7308441 z"
     id="rect4158-0-3-62-2"
     sodipodi:nodetypes="ccccccscc" />
  <path
     inkscape:connector-curvature="0"
     style="color:#000000;display:inline;overflow:visible;visibility:visible;fill:#faf8f6;fill-opacity:1;fill-rule:nonzero;stroke:none;stroke-width:0.06615189;marker:none;enable-background:accumulate"
     d="M 11.112883,3.0423639 8.4670495,0.39686873 v 0.98132417 0.04267 0.022918 c 0,1.5060031 0.069406,1.6059637 1.5788645,1.5985826 z"
     id="rect4158-0-3-62"
     sodipodi:nodetypes="ccccscc" />
</svg>
